X: 17884
T: Horse's Leotard, The
R: jig
M: 6/8
K: Dmajor
D|~E2B {c}BAF|ABc dc/c/B|{D}E~E2 {c}BAF|ABA {FG}FGF|
E~E2 BAF|ABc (d2 e)|B~B2 A F/F/F|FED E2:|
D|~E2e {f}ecB|ABc dc/B/A|B{c}Be edB|ABA ~F3|
E3 {f}ecB|ABc (d2 e)|B~B2 AFF|{G}FED ~E2:|

